X:1
T:Title
%%score { ( 1 4 ) | ( 2 3 ) }
L:1/8
Q:1/4=90
M:2/4
K:Bb
V:1 treble nm="Grand Piano"
V:4 treble 
V:2 bass 
V:3 bass 
V:1
 [B,DF][B,DF] [B,EG][CEA] | .[DB]2 [B,DF]2 | [G,CE][G,CE] [F,A,CF][F,CE] | [F,B,D]4 | %4
w: Carey~Bonner * * *||||
 [B,DF][B,DF] .[B,EG][D^FA] | B2 z2 | .[Fd]2 z2 | [A,F]4 | [A,CF]>[CF] [B,F][B,CF] | %9
w: |||||
 [B,EG]2 [B,EG]2 | [=B,DG]>[DG] [CG][C=EG] | [CFA]4 | BF [B,FB]c | d2 e2 | z .c z2 | B4 | %16
w: |||||||
 [DB]2 F2 | c2 F2 | B2 [CEA]>[B,G] | [D^FA]2 D2 | B2 F2 | c2 F2 | c>=B c>d | c2 _d2 | [Fd]2 [FB]2 | %25
w: |||||||||
 [Ee]2 [Fd]2 | [EFc]>[DFB] [CFA]>[C=EG] | [A,F]2 [CFA]2 | [B,FB]2 c2 | d>e fB | [Bd]2 A->[Ad] | %31
w: ||||||
 B4 |] %32
w: |
V:2
 B,,B,, E,C, | z B, B,,2 | C,C, G,,F,, | B,,4 | B,,B,, z/ G/D, | z B, [F,A,F]2 | .B,,>D C,C, | %7
 F,4 | .F,>A, D,B,, | E,2 E,2 | .G,>=B, =E,C, | F,4 | B,F, D,[K:treble][F,A,F] | [B,F]2 [G,B,E]2 | %14
 [B,F][K:bass][E,E] [F,DF][K:treble][F,CF] | [B,DF]4 | [B,,B,]2 [D,B,]2 | [F,A,F]2 [F,A,]2 | %18
 [G,B,D]2 C,>E, | D,2 D,2 | [G,D]2 [A,C]2 | [F,A,F]2 [A,C]2 | %22
 [F,A,F]>[_A,F][K:bass] [F,=A,F]>[F,B,F] | [F,A,F]4 | [B,,B,]2 [D,B,]2 | [C,A,]2 [B,,B,]2 | %26
 A,,>B,, C,>C, | F,2 F,E, | D,2[K:treble] [F,A,F]2 | [B,F]>[B,CF] [B,DF][K:bass][G,_D=E] | %30
 [F,F]2 [F,E]>[F,F] | [B,D]4 |] %32
V:3
 x4 | B,,2 z2 | x4 | x4 | z2 .E,2 | G,2 z2 | z B,, z2 | x4 | z E, z2 | x4 | z F, z2 | x4 | %12
 x3[K:treble] x | x4 | x[K:bass] x2[K:treble] x | x4 | x4 | x4 | x4 | x4 | x4 | x4 | %22
 x2[K:bass] x2 | x4 | x4 | x4 | x4 | x4 | x2[K:treble] x2 | x3[K:bass] x | x4 | x4 |] %32
V:4
 x4 | x4 | x4 | x4 | x4 | [DG]D c2 | C-[CEc]/B/ [CFA][B,=EG] | x4 | x4 | x4 | x4 | x4 | x4 | x4 | %14
 dG/-[GB]/ BA | x4 | x4 | x4 | x4 | x4 | x4 | x4 | x4 | x4 | x4 | x4 | x4 | x4 | x4 | x4 | z2 c2 | %31
 x4 |] %32

